symbols/web/sms/materialsymbolssharp/sms_40px.svg

<svg xmlns="http://www.w3.org/2000/svg" height="40" width="40"><path d="M12.958 18.25q.709 0 1.188-.479t.479-1.188q0-.708-.479-1.187-.479-.479-1.188-.479-.708 0-1.187.479-.479.479-.479 1.187 0 .709.479 1.188t1.187.479Zm7.125 0q.709 0 1.188-.479t.479-1.188q0-.708-.479-1.187-.479-.479-1.188-.479-.708 0-1.187.479-.479.479-.479 1.187 0 .709.479 1.188t1.187.479Zm6.959 0q.708 0 1.187-.479.479-.479.479-1.188 0-.708-.479-1.187-.479-.479-1.187-.479-.709 0-1.188.479t-.479 1.187q0 .709.479 1.188t1.188.479ZM3.333 36.667V3.333h33.334V30H10Zm2.792-6.709 2.708-2.75h25.042V6.125H6.125Zm0 0V6.125v21.083Z"/></svg>

<svg xmlns="http://www.w3.org/2000/svg" height="40" width="40"><path d="M12.958 18.25Q13.667 18.25 14.146 17.771Q14.625 17.292 14.625 16.583Q14.625 15.875 14.146 15.396Q13.667 14.917 12.958 14.917Q12.25 14.917 11.771 15.396Q11.292 15.875 11.292 16.583Q11.292 17.292 11.771 17.771Q12.25 18.25 12.958 18.25ZM20.083 18.25Q20.792 18.25 21.271 17.771Q21.75 17.292 21.75 16.583Q21.75 15.875 21.271 15.396Q20.792 14.917 20.083 14.917Q19.375 14.917 18.896 15.396Q18.417 15.875 18.417 16.583Q18.417 17.292 18.896 17.771Q19.375 18.25 20.083 18.25ZM27.042 18.25Q27.75 18.25 28.229 17.771Q28.708 17.292 28.708 16.583Q28.708 15.875 28.229 15.396Q27.75 14.917 27.042 14.917Q26.333 14.917 25.854 15.396Q25.375 15.875 25.375 16.583Q25.375 17.292 25.854 17.771Q26.333 18.25 27.042 18.25ZM3.333 36.667V3.333H36.667V30H10ZM6.125 29.958 8.833 27.208H33.875V6.125H6.125ZM6.125 29.958V6.125V27.208Z"/></svg>
